X:1
T:Title
%%score { ( 1 3 ) | 2 }
L:1/8
Q:1/4=100
M:4/4
K:G
V:1 treble nm="Grand Piano"
V:3 treble 
V:2 bass 
V:1
 [B,D][B,D][CE][CDF] [B,DG]2 [G,DG]A | B2 c2 d4 | [Fc][Fc][FA][Ac] [DGB]2 [B,G][DB] | %3
w: Chas.~H.~Gabriel * * * * * *|||
 [^CA]2 [CE][CB] [=CA]4 | [B,D][B,D][CE][CDF] [B,DG]2 [G,DG]A | B2 c2 d4 | %6
w: |||
 [Ec][Ec][CE][Ec] [Dc][DB][B,D][DG] | A2 B>A [B,G]4 | z4 c4 | z4 B4 | ddBB [Ac][Ac][GB][GB] | %11
w: |||||
 A6 z2 | BBAG B3 B | [Ec][Ec][CE][EG] [DB]4 | [Dd][Dd][EG][Ec] B<B A>A | [B,DG]6 z2 |] %16
w: |||||
V:2
 [G,,G,][G,,G,][G,,G,]G,, G,,2 B,,[D,F,D] | [G,D]2 [G,A,D]2 [G,B,G]4 | %2
 [D,A,][D,A,][D,D][D,D] G,,2 G,,[G,,G,] | [A,,G,]2 [A,,G,][A,,G,] [D,F,]4 | %4
 [G,,G,][G,,G,][G,,G,]G,, G,,2 B,,[D,F,D] | [G,D]2 [G,A,D]2 [G,B,G]4 | %6
 [C,G,][C,G,][C,G,][C,G,] [G,,G,][G,,G,][G,,G,][B,,G,] | [D,F,D]2 [D,F,D]>[D,F,C] [G,,G,]4 | %8
 [C,G,]<[C,G,] [C,G,]>[C,G,] [C,G,]2 [C,G,][C,G,] | %9
 [G,,G,]<[G,,G,] [G,,G,]>[G,,G,] [G,,G,]2 [G,,G,]<[G,,G,] | %10
 [G,B,G][G,B,G][G,DG][G,DG][K:bass] [F,D][F,D][G,D][G,D] | [D,D]2 [D,D]>[D,D] [D,D]2 z2 | %12
 [G,DG][G,DG]C[G,B,D] [G,DG]3 [G,=F] | [C,G,][C,G,][C,G,][C,G,] [G,,G,]4 | %14
 [B,,G,][B,,G,][C,G,][C,G,] [D,G,D]<[D,G,D] [D,CD]>[D,CD] | G,,6 z2 |] %16
V:3
 x8 | x8 | x8 | x8 | x8 | x8 | x8 | x8 | [EG]<[EG] [CE]>[EG] E2 EE | [DB]<[DB] [B,D]>[B,G] D2 D<D | %10
 x8 | F2 F>F F2 z2 | x8 | x8 | x8 | x8 |] %16

